images/icon/white-telegramm-logo.svg

<svg width="25" height="24" viewBox="0 0 25 24" fill="none" xmlns="http://www.w3.org/2000/svg">
<path fill-rule="evenodd" clip-rule="evenodd" d="M24.9189 12C24.9189 18.627 19.5459 24 12.9189 24C6.29195 24 0.918945 18.627 0.918945 12C0.918945 5.373 6.29195 0 12.9189 0C19.5459 0 24.9189 5.373 24.9189 12ZM13.3489 8.859C12.1819 9.344 9.84895 10.349 6.35095 11.873C5.78295 12.099 5.48495 12.32 5.45795 12.536C5.41195 12.902 5.86995 13.046 6.49195 13.241C6.57695 13.268 6.66495 13.295 6.75495 13.325C7.36795 13.524 8.19195 13.757 8.61995 13.766C9.00895 13.774 9.44295 13.614 9.92195 13.286C13.1899 11.079 14.8769 9.964 14.9829 9.94C15.0579 9.923 15.1619 9.901 15.2319 9.964C15.3019 10.026 15.2949 10.144 15.2879 10.176C15.2419 10.369 13.4479 12.038 12.5179 12.902C12.2279 13.171 12.0229 13.362 11.9809 13.406C11.8869 13.503 11.7909 13.596 11.6989 13.685C11.1289 14.233 10.7029 14.645 11.7229 15.317C12.2129 15.64 12.6049 15.907 12.9959 16.173C13.4229 16.464 13.8489 16.754 14.4009 17.116C14.5409 17.208 14.6749 17.303 14.8059 17.396C15.3029 17.751 15.7499 18.069 16.3019 18.019C16.6219 17.989 16.9539 17.688 17.1219 16.789C17.5189 14.663 18.3009 10.059 18.4819 8.161C18.493 8.00341 18.4863 7.84509 18.4619 7.689C18.4474 7.56293 18.386 7.44693 18.2899 7.364C18.1469 7.247 17.9249 7.222 17.8249 7.224C17.3739 7.232 16.6819 7.473 13.3489 8.859V8.859Z" fill="white"/>
</svg>

<svg width="25" height="24" fill="none" xmlns="http://www.w3.org/2000/svg"><path fill-rule="evenodd" clip-rule="evenodd" d="M24.919 12c0 6.627-5.373 12-12 12s-12-5.373-12-12 5.373-12 12-12 12 5.373 12 12zm-11.57-3.141c-1.167.485-3.5 1.49-6.998 3.014-.568.226-.866.447-.893.663-.046.366.412.51 1.034.705.085.027.173.054.263.084.613.199 1.437.432 1.865.441.389.008.823-.152 1.302-.48 3.268-2.207 4.955-3.322 5.06-3.346.076-.017.18-.039.25.024.07.062.063.18.056.212-.046.193-1.84 1.862-2.77 2.726-.29.269-.495.46-.537.504-.094.097-.19.19-.282.279-.57.548-.996.96.024 1.632.49.323.882.59 1.273.856.427.291.853.581 1.405.943.14.092.274.187.405.28.497.355.944.673 1.496.623.32-.03.652-.331.82-1.23.397-2.126 1.179-6.73 1.36-8.628a2.1 2.1 0 00-.02-.472.506.506 0 00-.172-.325c-.143-.117-.365-.142-.465-.14-.451.008-1.143.249-4.476 1.635z" fill="#fff"/></svg>
